2 Export/Icons/Rounded/Edit.svg

<svg xmlns="http://www.w3.org/2000/svg" xmlns:xlink="http://www.w3.org/1999/xlink" width="24" height="24" viewBox="0 0 24 24">
  <defs>
    <path id="edit-a" d="M3 17.46v3.04c0 .28.22.5.5.5h3.04c.13 0 .26-.05.35-.15L17.81 9.94l-3.75-3.75L3.15 17.1c-.1.1-.15.22-.15.36zM20.71 7.04a.996.996 0 0 0 0-1.41l-2.34-2.34a.996.996 0 0 0-1.41 0l-1.83 1.83 3.75 3.75 1.83-1.83z"/>
  </defs>
  <g fill="none" fill-rule="evenodd">
    <polygon points="0 0 24 0 24 24 0 24"/>
    <mask id="edit-b" fill="#fff">
      <use xlink:href="#edit-a"/>
    </mask>
    <use fill="#000" xlink:href="#edit-a"/>
    <g fill="#000" mask="url(#edit-b)">
      <rect width="24" height="24"/>
    </g>
  </g>
</svg>

<svg xmlns="http://www.w3.org/2000/svg" xmlns:xlink="http://www.w3.org/1999/xlink" width="24" height="24" viewBox="0 0 24 24">
  <defs>
    <path id="edit-a" d="M3,17.46 L3,20.5 C3,20.78 3.22,21 3.5,21 L6.54,21 C6.67,21 6.8,20.95 6.89,20.85 L17.81,9.94 L14.06,6.19 L3.15,17.1 C3.05,17.2 3,17.32 3,17.46 Z M20.71,7.04 C21.1,6.65 21.1,6.02 20.71,5.63 L18.37,3.29 C17.98,2.9 17.35,2.9 16.96,3.29 L15.13,5.12 L18.88,8.87 L20.71,7.04 Z"/>
  </defs>
  <g fill="none" fill-rule="evenodd">
    <polygon points="0 0 24 0 24 24 0 24"/>
    <mask id="edit-b" fill="#fff">
      <use xlink:href="#edit-a"/>
    </mask>
    <use fill="#000" xlink:href="#edit-a"/>
    <g fill="#000" mask="url(#edit-b)">
      <rect width="24" height="24"/>
    </g>
  </g>
</svg>
